pix_core/i/delete.svg

<svg preserveAspectRatio="xMinYMid meet" viewBox="0 0 448 512" xmlns="http://www.w3.org/2000/svg"><path d="m135.2 17.7c5.4-10.9 16.5-17.7 28.6-17.7h120.4c12.1 0 23.2 6.8 28.6 17.7l7.2 14.3h96c17.7 0 32 14.3 32 32s-14.3 32-32 32h-384c-17.7 0-32-14.3-32-32s14.3-32 32-32h96zm-103.2 110.3h384v320c0 35.3-28.7 64-64 64h-256c-35.3 0-64-28.7-64-64zm96 64c-8.8 0-16 7.2-16 16v224c0 8.8 7.2 16 16 16s16-7.2 16-16v-224c0-8.8-7.2-16-16-16zm96 0c-8.8 0-16 7.2-16 16v224c0 8.8 7.2 16 16 16s16-7.2 16-16v-224c0-8.8-7.2-16-16-16zm96 0c-8.8 0-16 7.2-16 16v224c0 8.8 7.2 16 16 16s16-7.2 16-16v-224c0-8.8-7.2-16-16-16z" fill="#fff"/></svg>

<svg xmlns="http://www.w3.org/2000/svg" viewBox="0 0 448 512" preserveAspectRatio="xMinYMid meet"><!--!Font Awesome Free 6.5.2 by @fontawesome - https://fontawesome.com License - https://fontawesome.com/license/free Copyright 2024 Fonticons, Inc.--><path fill="#fff" d="M135.2 17.7C140.6 6.8 151.7 0 163.8 0H284.2c12.1 0 23.2 6.8 28.6 17.7L320 32h96c17.7 0 32 14.3 32 32s-14.3 32-32 32H32C14.3 96 0 81.7 0 64S14.3 32 32 32h96l7.2-14.3zM32 128H416V448c0 35.3-28.7 64-64 64H96c-35.3 0-64-28.7-64-64V128zm96 64c-8.8 0-16 7.2-16 16V432c0 8.8 7.2 16 16 16s16-7.2 16-16V208c0-8.8-7.2-16-16-16zm96 0c-8.8 0-16 7.2-16 16V432c0 8.8 7.2 16 16 16s16-7.2 16-16V208c0-8.8-7.2-16-16-16zm96 0c-8.8 0-16 7.2-16 16V432c0 8.8 7.2 16 16 16s16-7.2 16-16V208c0-8.8-7.2-16-16-16z"/></svg>
